X:1
T:Fantasia 10 - Allegro
T:Fantasia 10 - Allegro
T:Dozzina 3 - TWV 
T:Georg Philipp Telemann
C:Georg Philipp Telemann
%%score { 1 | 2 }
L:1/8
Q:1/4=60
M:4/4
K:D
V:1 treble nm="Cembalo" snm="Cbl."
V:2 bass 
V:1
 d2 d2 d/c/B/A/ d/c/B/A/ | e2 e2 e/c/B/A/ e/c/B/A/ | fe gf ba z2 | f/e/d ad Pcd z2 | %4
 d/4e/4f3/2 f/4g/4a3/2 d/4e/4f3/2 f/4g/4a3/2 | A/B/c/d/ ea A/B/c/d/ ea | d/c/d b z c/B/c a z | %7
 BA dc PB2 z2 | A2 A2 A/^G/F/E/ A/G/F/E/ | B2 B2 B/^G/F/E/ B/G/F/E/ | cB dc fe z2 | %11
 c/B/A eA P^GA z2 | B2 =c<A G3 c | Bedg B/4A/4G3/2 z2 | B2 g<^d e3 =d/=c/ | BeBA G/4F/4E3/2 z2 | %16
 g/f/g/b/ g/f/g/b/ g/f/g/a/ g/f/g/a/ | f/e/f/a/ f/e/f/a/ f/e/f/g/ f/e/f/g/ | e d2 f ed3/2 e/f/g/ | %19
 ab/a/ gf Pe2 z2 | d2 d2 d/c/B/A/ d/c/B/A/ | e2 e2 e/c/B/A/ e/c/B/A/ | fe gf ba z2 | %23
 f/e/d ad Pcd z2 | F2 G<E D3 G | FBAd F/4E/4D3/2 z2 | c/4d/4e3/2 f<d e ^g2 a | %27
 e<c d<B c/4B/4A3/2 z2 | D/E/F/G/ Ad A/B/c/d/ ea | f/e/f/a/ f/e/f/a/ f/e/f/a/ f/e/f/a/ | %30
 =f/e/f/g/ f/e/f/g/ f/e/f/g/ f/e/f/g/ | e/d/e b z c/B/c g z | ^fegf ba z2 | fe/d/ Ac deAc | %34
 dc/d/ e/d/c/B/ d/c/B/A/ Bc | D/E/F/G/ AA, D2 z2 |] %36
V:2
 D,E,F,E, D,2 z2 | CB,A,^G, A,2 z2 | DC B,A, G,F, z2 | D,E, F,G, A,D, z2 | DDDD D,D,D,D, | %5
 CCCC C,C,C,C, | B,A,^G,E, A,A,,C,A,, | D,C,B,,A,, E,E,,E,D, | C,D, C,B,, A,,2 z2 | %9
 ^G,F, E,^D, E,2 z2 | A,^G, F,E, D,C, z2 | A,,B,, C,D, E,A,, z2 | G,,G,G,,G, G,,G,G,,G, | %13
 G,,G,G,,G, G,,G,G,,G, | E,,E,E,,E, E,,E,E,,E, | E,,E,E,,E, E,,E,E,,E, | E,,2 E2 B,2 C2 | %17
 D,2 D2 ^A,2 B,2 | G,2 F,D, G,2 F,E, | F,G,/F,/ E,D, A,A,,B,,C, | D,E,F,E, D,2 z2 | %21
 CB,A,^G, A,2 z2 | DC B,A, G,F, z2 | D,E, F,G, A,D, z2 | D,,D,D,,D, D,,D,D,,D, | %25
 D,,D,D,,D, D,,D,D,,D, | A,,A,A,,A, A,,A,A,,A, | A,,A,A,,A, A,,A,A,,A, | %28
 D,/E,/F,/G,/ A,D F,/G,/A,/B,/ E!8va(!A!8va)! | D2 D,2 C2 C,2 | B,2 B,,2 A,2 A,,2 | %31
 ^G,F,G,E, A,A,,B,,C, | D,C, B,,A,, G,,F,, z2 | D,G, A,G, F,G, A,G, | F,2 ^G,2 A,F, =G,E, | %35
 D,/E,/F,/G,/ A,A,, D,2 z2 |] %36

